X:1
T:Capri, 87.87 D
T:Capri, 87.87 D
T:Samuel Merrill Bixby, 1894
T:Public Domain Courtesy of the Cyber Hymnal™
C:Samuel Merrill Bixby, 1894
Z:Public Domain
Z:Courtesy of the Cyber Hymnal™
%%score ( 1 2 ) ( 3 4 )
L:1/8
Q:1/4=110
M:9/8
K:Ab
V:1 treble 
V:2 treble 
V:3 bass 
V:4 bass 
V:1
 (AG)[CF] | [DF]3 [DE]3 (EF)[DG] | [CA]3 [CA]3 [EB]2 [EB] | [DB]3 [CA]3 (GA)[EB] | [Ec]6 (AG)[CF] | %5
 [DF]3 [DE]3 (EF)[DG] [CF]3 [Ec]3 [Fd]2 [Fc] | [FB]3 [FB]3 [EA]2 [DG] | [CA]6 EEE | %8
 [Ed]3 [EB]3 (AG)[EA] | [Ec]3 [EB]3 [EB][EB][EB] [=DB]3 [DA]3 [DG]2 [DF] | E6 E[EF][DG] | %11
 [CA]3 [DB]3 ([Ec][Fd])[Ec] | [FB]3 [FB]3 [FA][B,G][=B,F] | [CE]3 [Ec]3 [Ec]2 [DB] | [CA]6 |] %15
V:2
 C2 x | x6 D2 x | x9 | x6 E2 x | x6 C2 x | x6 D2 x10 | x9 | x6 EEE | x6 E2 x | x18 | E6 E x2 | x9 | %12
 x9 | x9 | x6 |] %15
V:3
 [A,,E,]2 [A,,A,] | [B,,A,]3 [B,,G,]3 [E,G,]2 [E,B,] | [A,,A,]3 [A,,A,]3 [E,G,]2 [E,G,] | %3
 [E,G,]3 [E,A,]3 [E,B,]2 [E,G,] | [A,,A,]6 [A,,E,]2 [A,,A,] | %5
 [B,,A,]3 [B,,G,]3 [E,G,]2 [E,B,] [F,A,]3 [E,A,]3 [D,A,]2 [D,A,] | [D,D]3 [D,D]3 [E,C]2 [E,B,] | %7
 [A,,A,]6 E,E,E, | [E,G,]3 [E,G,]3 (CB,)[E,C] | %9
 [E,A,]3 [E,G,]3 [E,G,][E,G,][E,G,] [B,,F,]3 [B,,B,]3 [B,,B,]2 [B,,A,] | [E,G,]6 G,A,[E,B,] | %11
 [A,,A,]3 [A,,A,]3 [A,,A,]2 [A,,A,] | [D,A,]3 [D,A,]3 [D,A,][D,A,][=D,A,] | %13
 [E,A,]3 [E,A,]3 [E,G,]2 [E,G,] | [A,,A,]6 |] %15
V:4
 x3 | x9 | x9 | x9 | x9 | x18 | x9 | x6 E,E,E, | x6 E,2 x | x18 | x6 E,2 x | x9 | x9 | x9 | x6 |] %15

